X:0650
M:6/8
L:1/8
Q:3/8=112
K:G
  G3  G2g|dBG   GAB |cEA   TF>EF|gdc BAG|
  G3  G2g|dBG   GAB |cde    dcB |AFD DEF|
  G3  G2g|dBG   GAB |cEA    FEF |G3  G2||
d|dBd dBd|gag (Tf2e)|dBd {e}dcB |AFD D2d|
  dBd dBd|gag   f2e |dcB    AGF |gdc BAG|
  dBd dBd|gag   f2e |dBd {e}dcB |AFD D3 |
  dBd ece|fdf   gfe |dcB    Agf |gdB G2|]

